X:144
T:Bonnay Wattered Meggy(?). HA.143
T:Farewell my pretty,witty Peggy,aka. HA.143
M:C
L:1/8
Q:1/4=100
S:Henry Atkinson’s original MS,Hartburn,N’umberland,1694.
O:England
A:Hartburn,Northumberland
N:B music a bit odd, but sounds OK as is. NBr
H:1/8
Z:vmp.Neil Brookes, Jan.2004
K:F
c|f2(f/2g/2a) (fd) (cA)|G>FG>A (FD)F2|
f2(f/2g/2a) (fd)(cA)|(GF)(GA) F3||
c|c3d (cA)c2|f2(f/2g/2a)”^=”g3f|\
d2(d/2e/2f) (cA)(GF)”_barline missing in MS”|D2B2G2F|
FCFG A2 (fe)|d3c defg|a3g (fc)(df)|(cA)(GF) F3|]

